X:1
T:Fiddichside Lasses
T:Fiddichside Lasses
T:William Marshall
C:William Marshall
L:1/8
Q:1/8=128
M:4/4
K:A
V:1 treble 
V:1
|: c/d/ | e<A e>c eA Ac/d/ | e<A e>c d=G Gc/d/ | eA ec bA ec | B=g dg B=G Gc/d/ | %5
 e<A e>c eA Ac/d/ | e<A e>c d=G Gc/d/ | eA ec bA ec | B=g dg B=G GB | Aa g/a/b a>c e>c | %10
 Aa g/a/b =g>d dB | Aa g/a/b a>c =ge | f>d e=c d=G GB | Aa g/a/b a>c e>c | Aa g/a/b =g>d dB | %15
 Aa g/a/b a>f =ge | f>d e=c d=GG :| %17

